; HEADER_BLOCK_START
; BambuStudio 02.03.01.51
; estimated printing time (normal mode) = 28m 43s
; total layer number: 100
; total filament length [mm] : 1257.61
; total filament volume [cm^3] : 3024.90
; total filament weight [g] : 0.00
; filament_density: 0
; filament_diameter: 1.75
; max_z_height: 20.00
; filament: 1
; HEADER_BLOCK_END

; CONFIG_BLOCK_START
; accel_to_decel_enable = 0
; accel_to_decel_factor = 50%
; activate_air_filtration = 0
; additional_cooling_fan_speed = 0
; apply_scarf_seam_on_circles = 1
; apply_top_surface_compensation = 0
; auxiliary_fan = 0
; avoid_crossing_wall_includes_support = 0
; bed_custom_model = 
; bed_custom_texture = 
; bed_exclude_area = 0x0
; bed_temperature_formula = by_first_filament
; before_layer_change_gcode = 
; best_object_pos = 0.5,0.5
; bottom_color_penetration_layers = 3
; bottom_shell_layers = 3
; bottom_shell_thickness = 0
; bottom_surface_pattern = zig-zag
; bridge_angle = 0
; bridge_flow = 1
; bridge_no_support = 0
; bridge_speed = 25
; brim_object_gap = 0
; brim_type = auto_brim
; brim_width = 0
; chamber_temperatures = 0
; change_filament_gcode = 
; circle_compensation_manual_offset = 0
; circle_compensation_speed = 200
; close_fan_the_first_x_layers = 1
; complete_print_exhaust_fan_speed = 80
; cool_plate_temp = 35
; cool_plate_temp_initial_layer = 35
; counter_coef_1 = 0
; counter_coef_2 = 0.025
; counter_coef_3 = -0.11
; counter_limit_max = 0.05
; counter_limit_min = -0.04
; curr_bed_type = Cool Plate
; default_acceleration = 500
; default_filament_colour = ""
; default_jerk = 0
; deretraction_speed = 0
; detect_floating_vertical_shell = 1
; detect_narrow_internal_solid_infill = 1
; detect_overhang_wall = 1
; detect_thin_wall = 0
; diameter_limit = 50
; different_settings_to_system = ;
; draft_shield = disabled
; during_print_exhaust_fan_speed = 60
; elefant_foot_compensation = 0
; enable_arc_fitting = 0
; enable_circle_compensation = 0
; enable_height_slowdown = 0
; enable_long_retraction_when_cut = 0
; enable_overhang_bridge_fan = 1
; enable_overhang_speed = 1
; enable_pre_heating = 0
; enable_pressure_advance = 0
; enable_prime_tower = 0
; enable_support = 0
; enable_wrapping_detection = 0
; enforce_support_layers = 0
; eng_plate_temp = 45
; eng_plate_temp_initial_layer = 45
; ensure_vertical_shell_thickness = enabled
; exclude_object = 1
; extruder_ams_count = 
; extruder_clearance_dist_to_rod = 40
; extruder_clearance_height_to_lid = 120
; extruder_clearance_height_to_rod = 40
; extruder_clearance_max_radius = 68
; extruder_colour = ""
; extruder_offset = 0x0
; extruder_printable_area = 
; extruder_printable_height = 0
; extruder_type = Direct Drive
; fan_cooling_layer_time = 60
; fan_direction = undefine
; fan_max_speed = 100
; fan_min_speed = 20
; filament_adaptive_volumetric_speed = 0
; filament_adhesiveness_category = 0
; filament_change_length = 10
; filament_colour = #00AE42
; filament_cost = 0
; filament_density = 0
; filament_diameter = 1.75
; filament_end_gcode = " "
; filament_extruder_variant = "Direct Drive Standard"
; filament_flow_ratio = 1
; filament_flush_temp = 0
; filament_flush_volumetric_speed = 0
; filament_ids = 
; filament_is_support = 0
; filament_map = 1
; filament_map_mode = Auto For Flush
; filament_max_volumetric_speed = 2
; filament_minimal_purge_on_wipe_tower = 15
; filament_notes = 
; filament_pre_cooling_temperature = 0
; filament_prime_volume = 45
; filament_printable = 3
; filament_ramming_travel_time = 0
; filament_ramming_volumetric_speed = -1
; filament_scarf_gap = 0
; filament_scarf_height = 10%
; filament_scarf_length = 10
; filament_scarf_seam_type = none
; filament_settings_id = ""
; filament_shrink = 100%
; filament_soluble = 0
; filament_start_gcode = " "
; filament_type = PLA
; filament_velocity_adaptation_factor = 1
; filament_vendor = (Undefined)
; filename_format = [input_filename_base].gcode
; filter_out_gap_fill = 0
; first_layer_print_sequence = 0
; first_x_layer_fan_speed = 0
; flush_into_infill = 0
; flush_into_objects = 0
; flush_into_support = 1
; flush_multiplier = 1
; flush_volumes_matrix = 0,280,280,280,280,0,280,280,280,280,0,280,280,280,280,0
; flush_volumes_vector = 140,140,140,140,140,140,140,140
; full_fan_speed_layer = 0
; fuzzy_skin = none
; fuzzy_skin_point_distance = 0.8
; fuzzy_skin_thickness = 0.3
; gap_infill_speed = 30
; gcode_add_line_number = 0
; gcode_flavor = marlin
; grab_length = 0
; has_scarf_joint_seam = 0
; head_wrap_detect_zone = 
; hole_coef_1 = 0
; hole_coef_2 = -0.025
; hole_coef_3 = 0.28
; hole_limit_max = 0.25
; hole_limit_min = 0.08
; hot_plate_temp = 45
; hot_plate_temp_initial_layer = 45
; hotend_cooling_rate = 2
; hotend_heating_rate = 2
; impact_strength_z = 0
; independent_support_layer_height = 1
; infill_combination = 0
; infill_direction = 45
; infill_jerk = 9
; infill_lock_depth = 1
; infill_rotate_step = 0
; infill_shift_step = 0.4
; infill_wall_overlap = 15%
; inherits_group = ;
; initial_layer_acceleration = 300
; initial_layer_flow_ratio = 1
; initial_layer_infill_speed = 60
; initial_layer_jerk = 9
; initial_layer_line_width = 0.4
; initial_layer_print_height = 0.2
; initial_layer_speed = 30
; initial_layer_travel_acceleration = 500
; inner_wall_acceleration = 0
; inner_wall_jerk = 9
; inner_wall_line_width = 0.4
; inner_wall_speed = 60
; interface_shells = 0
; interlocking_beam = 0
; interlocking_beam_layer_count = 2
; interlocking_beam_width = 0.8
; interlocking_boundary_avoidance = 2
; interlocking_depth = 2
; interlocking_orientation = 22.5
; internal_bridge_support_thickness = 0
; internal_solid_infill_line_width = 0.4
; internal_solid_infill_pattern = zig-zag
; internal_solid_infill_speed = 100
; ironing_direction = 45
; ironing_flow = 10%
; ironing_inset = 0
; ironing_pattern = zig-zag
; ironing_spacing = 0.1
; ironing_speed = 20
; ironing_type = no ironing
; is_infill_first = 0
; layer_change_gcode = 
; layer_height = 0.2
; line_width = 0.4
; locked_skeleton_infill_pattern = zigzag
; locked_skin_infill_pattern = crosszag
; long_retractions_when_cut = 0
; long_retractions_when_ec = 0
; machine_end_gcode = M104 S0 ; turn off temperature\nG28 X0  ; home X axis\nM84     ; disable motors\n
; machine_load_filament_time = 0
; machine_max_acceleration_e = 5000,5000
; machine_max_acceleration_extruding = 1500,1250
; machine_max_acceleration_retracting = 1500,1250
; machine_max_acceleration_travel = 1500,1250
; machine_max_acceleration_x = 1000,1000
; machine_max_acceleration_y = 1000,1000
; machine_max_acceleration_z = 500,200
; machine_max_jerk_e = 2.5,2.5
; machine_max_jerk_x = 10,10
; machine_max_jerk_y = 10,10
; machine_max_jerk_z = 0.2,0.4
; machine_max_speed_e = 120,120
; machine_max_speed_x = 500,200
; machine_max_speed_y = 500,200
; machine_max_speed_z = 12,12
; machine_min_extruding_rate = 0,0
; machine_min_travel_rate = 0,0
; machine_pause_gcode = 
; machine_prepare_compensation_time = 260
; machine_start_gcode = G28 ; home all axes\nG1 Z5 F5000 ; lift nozzle\n
; machine_switch_extruder_time = 5
; machine_unload_filament_time = 0
; master_extruder_id = 1
; max_bridge_length = 10
; max_layer_height = 0
; max_travel_detour_distance = 0
; min_bead_width = 85%
; min_feature_size = 25%
; min_layer_height = 0.07
; minimum_sparse_infill_area = 15
; mmu_segmented_region_interlocking_depth = 0
; mmu_segmented_region_max_width = 0
; no_slow_down_for_cooling_on_outwalls = 0
; nozzle_diameter = 0.4
; nozzle_flush_dataset = 0
; nozzle_height = 4
; nozzle_temperature = 200
; nozzle_temperature_initial_layer = 200
; nozzle_temperature_range_high = 240
; nozzle_temperature_range_low = 190
; nozzle_type = undefine
; nozzle_volume = 0
; nozzle_volume_type = Standard
; only_one_wall_first_layer = 0
; ooze_prevention = 0
; other_layers_print_sequence = 0
; other_layers_print_sequence_nums = 0
; outer_wall_acceleration = 500
; outer_wall_jerk = 9
; outer_wall_line_width = 0
; outer_wall_speed = 60
; overhang_1_4_speed = 0
; overhang_2_4_speed = 0
; overhang_3_4_speed = 0
; overhang_4_4_speed = 0
; overhang_fan_speed = 100
; overhang_fan_threshold = 95%
; overhang_threshold_participating_cooling = 95%
; overhang_totally_speed = 10
; override_filament_scarf_seam_setting = 0
; physical_extruder_map = 0
; post_process = 
; pre_start_fan_time = 0
; precise_outer_wall = 0
; precise_z_height = 0
; pressure_advance = 0.02
; prime_tower_brim_width = 3
; prime_tower_enable_framework = 0
; prime_tower_extra_rib_length = 0
; prime_tower_fillet_wall = 1
; prime_tower_flat_ironing = 0
; prime_tower_infill_gap = 150%
; prime_tower_lift_height = -1
; prime_tower_lift_speed = 90
; prime_tower_max_speed = 90
; prime_tower_rib_wall = 1
; prime_tower_rib_width = 8
; prime_tower_skip_points = 1
; prime_tower_width = 35
; print_compatible_printers = 
; print_extruder_id = 1
; print_extruder_variant = "Direct Drive Standard"
; print_flow_ratio = 1
; print_sequence = by layer
; print_settings_id = 
; printable_area = 0x0,200x0,200x200,0x200
; printable_height = 100
; printer_extruder_id = 1
; printer_extruder_variant = "Direct Drive Standard"
; printer_model = 
; printer_notes = 
; printer_settings_id = 
; printer_structure = undefine
; printer_technology = FFF
; printing_by_object_gcode = 
; process_notes = 
; raft_contact_distance = 0.1
; raft_expansion = 1.5
; raft_first_layer_density = 90%
; raft_first_layer_expansion = -1
; raft_layers = 0
; reduce_crossing_wall = 0
; reduce_fan_stop_start_freq = 0
; reduce_infill_retraction = 0
; required_nozzle_HRC = 0
; resolution = 0.01
; retract_before_wipe = 100%
; retract_length_toolchange = 10
; retract_lift_above = 0
; retract_lift_below = 0
; retract_restart_extra = 0
; retract_restart_extra_toolchange = 0
; retract_when_changing_layer = 0
; retraction_distances_when_cut = 18
; retraction_distances_when_ec = 10
; retraction_length = 0.8
; retraction_minimum_travel = 2
; retraction_speed = 30
; role_base_wipe_speed = 1
; scan_first_layer = 0
; scarf_angle_threshold = 155
; seam_gap = 15%
; seam_placement_away_from_overhangs = 0
; seam_position = aligned
; seam_slope_conditional = 1
; seam_slope_entire_loop = 0
; seam_slope_gap = 0
; seam_slope_inner_walls = 1
; seam_slope_min_length = 10
; seam_slope_start_height = 10%
; seam_slope_steps = 10
; seam_slope_type = none
; silent_mode = 0
; single_extruder_multi_material = 0
; skeleton_infill_density = 15%
; skeleton_infill_line_width = 0.4
; skin_infill_density = 15%
; skin_infill_depth = 2
; skin_infill_line_width = 0.4
; skirt_distance = 2
; skirt_height = 1
; skirt_loops = 1
; slice_closing_radius = 0.049
; slicing_mode = regular
; slow_down_for_layer_cooling = 1
; slow_down_layer_time = 5
; slow_down_min_speed = 10
; slowdown_end_acc = 100000
; slowdown_end_height = 400
; slowdown_end_speed = 1000
; slowdown_start_acc = 100000
; slowdown_start_height = 0
; slowdown_start_speed = 1000
; small_perimeter_speed = 50%
; small_perimeter_threshold = 0
; smooth_coefficient = 80
; smooth_speed_discontinuity_area = 1
; solid_infill_filament = 1
; sparse_infill_acceleration = 100%
; sparse_infill_anchor = 400%
; sparse_infill_anchor_max = 20
; sparse_infill_density = 20%
; sparse_infill_filament = 1
; sparse_infill_line_width = 0.4
; sparse_infill_pattern = cubic
; sparse_infill_speed = 100
; spiral_mode = 0
; spiral_mode_max_xy_smoothing = 200%
; spiral_mode_smooth = 0
; standby_temperature_delta = -5
; start_end_points = 30x-3,54x245
; supertack_plate_temp = 35
; supertack_plate_temp_initial_layer = 35
; support_air_filtration = 0
; support_angle = 0
; support_base_pattern = default
; support_base_pattern_spacing = 2.5
; support_bottom_interface_spacing = 0.5
; support_bottom_z_distance = 0.2
; support_chamber_temp_control = 0
; support_critical_regions_only = 0
; support_expansion = 0
; support_filament = 0
; support_interface_bottom_layers = 0
; support_interface_filament = 0
; support_interface_loop_pattern = 0
; support_interface_not_for_body = 1
; support_interface_pattern = auto
; support_interface_spacing = 0.5
; support_interface_speed = 80
; support_interface_top_layers = 3
; support_line_width = 0.4
; support_object_first_layer_gap = 0.2
; support_object_skip_flush = 0
; support_object_xy_distance = 0.35
; support_on_build_plate_only = 0
; support_remove_small_overhang = 1
; support_speed = 80
; support_style = default
; support_threshold_angle = 30
; support_top_z_distance = 0.2
; support_type = normal(auto)
; symmetric_infill_y_axis = 0
; temperature_vitrification = 100
; template_custom_gcode = 
; textured_plate_temp = 45
; textured_plate_temp_initial_layer = 45
; thick_bridges = 0
; thumbnail_size = 50x50
; time_lapse_gcode = 
; timelapse_type = 0
; top_area_threshold = 200%
; top_color_penetration_layers = 4
; top_one_wall_type = all top
; top_shell_layers = 4
; top_shell_thickness = 0.6
; top_solid_infill_flow_ratio = 1
; top_surface_acceleration = 500
; top_surface_jerk = 9
; top_surface_line_width = 0.4
; top_surface_pattern = zig-zag
; top_surface_speed = 100
; top_z_overrides_xy_distance = 0
; travel_acceleration = 500
; travel_jerk = 9
; travel_speed = 120
; travel_speed_z = 0
; tree_support_branch_angle = 40
; tree_support_branch_diameter = 5
; tree_support_branch_diameter_angle = 5
; tree_support_branch_distance = 5
; tree_support_wall_count = -1
; use_firmware_retraction = 0
; use_relative_e_distances = 1
; vertical_shell_speed = 80%
; volumetric_speed_coefficients = ""
; wall_distribution_count = 1
; wall_filament = 1
; wall_generator = arachne
; wall_loops = 2
; wall_sequence = inner wall/outer wall
; wall_transition_angle = 10
; wall_transition_filter_deviation = 25%
; wall_transition_length = 100%
; wipe = 0
; wipe_distance = 2
; wipe_speed = 80%
; wipe_tower_no_sparse_layers = 0
; wipe_tower_rotation_angle = 0
; wipe_tower_x = 15
; wipe_tower_y = 220
; wrapping_detection_gcode = 
; wrapping_detection_layers = 20
; wrapping_exclude_area = 
; xy_contour_compensation = 0
; xy_hole_compensation = 0
; z_direction_outwall_speed_continuous = 0
; z_hop = 0.4
; z_hop_types = Spiral Lift
; CONFIG_BLOCK_END

; THUMBNAIL_BLOCK_START
; THUMBNAIL_BLOCK_END

; EXECUTABLE_BLOCK_START
M73 P0 R28
M201 X1000 Y1000 Z500 E5000
M203 X500 Y500 Z12 E120
M204 P1500 R1500 T1500
M205 X10.00 Y10.00 Z0.20 E2.50
M190 S35 ; set bed temperature and wait for it to be reached
M104 S200 ; set nozzle temperature
; FEATURE: Custom
G28 ; home all axes
G1 Z5 F5000 ; lift nozzle
; MACHINE_START_GCODE_END
;VT0
M109 S200 ; set nozzle temperature and wait for it to be reached
G90
G21
M83 ; use relative distances for extrusion
; CHANGE_LAYER
; Z_HEIGHT: 0.2
; LAYER_HEIGHT: 0.2
M106 S0
G1 E-.8 F1800
G1 X88.034 Y88.699 F7200
M204 S500
G1 Z.4
G1 Z.2
G1 E.8 F1800
; FEATURE: Skirt
; LINE_WIDTH: 0.4
G1 F1680.297
M204 S300
G1 X89.079 Y87.83 E.04034
G1 X90 Y87.643 E.02791
G1 X110 Y87.643 E.59383
G1 X111.301 Y88.034 E.04034
G1 X112.17 Y89.079 E.04034
G1 X112.357 Y90 E.02791
G1 X112.357 Y110 E.59383
G1 X111.966 Y111.301 E.04034
G1 X110.921 Y112.17 E.04034
G1 X110 Y112.357 E.02791
G1 X90 Y112.357 E.59383
G1 X88.699 Y111.966 E.04034
G1 X87.83 Y110.921 E.04034
G1 X87.643 Y110 E.02791
G1 X87.643 Y90 E.59383
G1 X88.017 Y88.757 E.03856
; OBJECT_ID: 15
G1 E-.8 F1800
M204 S500
G1 X109.443 Y109.443 F7200
G1 E.8 F1800
; FEATURE: Inner wall
; LINE_WIDTH: 0.39999
G1 F1680.343
M204 S300
G1 X90.557 Y109.443 E.56073
G1 X90.557 Y90.557 E.56073
G1 X109.443 Y90.557 E.56073
G1 X109.443 Y100 E.28037
G1 X109.443 Y109.383 E.27858
M204 S500
G1 X109.8 Y109.8 F7200
; FEATURE: Outer wall
G1 F1680.343
M204 S300
G1 X90.2 Y109.8 E.58193
G1 X90.2 Y90.2 E.58193
G1 X109.8 Y90.2 E.58193
G1 X109.8 Y100 E.29097
G1 X109.8 Y109.74 E.28919
G1 E-.8 F1800
M204 S500
G1 X109.3 Y91.43 F7200
G1 E.8 F1800
; FEATURE: Bottom surface
; LINE_WIDTH: 0.40395
G1 F1661.912
M204 S300
G1 X108.731 Y90.861 E.02418
G1 X108.22 Y90.861 E.01533
G1 X109.139 Y91.78 E.03903
G1 X109.139 Y92.291 E.01533
G1 X107.709 Y90.861 E.06071
G1 X107.199 Y90.861 E.01533
G1 X109.139 Y92.801 E.08239
G1 X109.139 Y93.312 E.01533
G1 X106.688 Y90.861 E.10406
